X:1
T:The Old Favourite
L:1/8
Q:1/4=160
M:6/8
K:G
"G" G z G z z G |"Em" E z E z z E |"C" c z c z z c |"D" d z d z z d |
"G" G z G z z G |"Em"E z E z z E |"C" c z c"D" z z c |"G" G z G z z G ::
"G"!<(! g3 f3 |"Em" e3 d3 |"C" c z c z z c |"D" d z d z z d!<)! |
"G"g3 f3 |"Em" e3 d3 |1"C" c z c"D" z3 |"G" G z G z3 :|2"C" c z c c z c |"D" c z c c z c |
